X:145
T: Old Tipperary
T: Sean-Tiobrad \'Arann
S: "Ceol Rince na hEireann" 1/16
Z: B.Black
L: 1/8
M: 6/8
R: jig
K: G
d |: cAG G3|AAA GFG|cAG GFG|(3ABc A FGA|
cAG G3|(3ABA A GGG|fdd edd|fdd cAG :|
GBd g3|gag g2f|dgg gfg|a2g fga|
bag agf|gfe f2e|dcA d2e|(3gfe d cAG :|

